X:17
T:Partie de Lancier 2
M:6/8
K:D
|: FBc dcB | FBc dcB | FBc dcB | f3- f2f \
|  cff cff | cff f2f | fgf edc | B6 :|
|: A3 FAd | f3- f2f | f2e d2e | B6 \
|  B2c dcB | AFA f3 | AAA ABc |1 d6 :|2 d3 =c3 ||
K: G
|: B2B GAG | e^de d3 | BAB dBd | cAF DFA \
|  ccc cBA | f3- f2e | ded cBA | BGE D3 |
|  B2B GAG | e^de d3 | BAB dBd | c3- c2d \
|  eee e^de | ddd dcd | fed cBA | G6 :|
